X: 30562
T: Once I Caught A Fish Alive
R: polka
M: 2/4
K: Gmajor
|:A|B2 B>A|AG G>G|FG AB|d^c =c2|
c2 c>B|BA A>A|GF EF|1 ED D:|2 G3||
|:A|BE BE/E/|BE E>F|GE E/F/G/E/|F[B,B] [B,B]>^A|
BE BE|BE E>F|GG FG/F/|E3:|
^D|D>D GA|B3 c|d>d cB|AE E2|
A>A c/B/A|c3 d|e>e dc|BA G/A/G/E/|
DD/D/ GA|B2 Bc|d>d cB|AE E2|
e>e fe|ed B/c/d|d^c/d/ eF|G3||

